!!!OTL: Quanfu canjun
!!!ARE: Asia, China,ÿLiaoning Haicheng
!! III, 233
!!!SCT: C1741
!!!YEM: Copyright 1995, estate of Helmut Schaffrath.
**kern
*ICvox
*Ivox
*M2/4
*k[f#c#g#]
*A:
{8ff#
16ff#
16ee
8ff#
8aa
=1
8ee
4.ee}
=2
{8ff#
8ee
8ff#
8aa
=3
8bb
4.bb}
=4
{4ff#
4ccc#
=5
4ff#
4ccc#
=6
8bb
4bb
8ff#
=7
4aa
8gg#
8ff#}
=8
{8r
8ff#
8ccc#
8ccc#
=9
8ff#
8ccc#
4ccc#
=10
8ccc#
16ccc#
16bb
8ccc#
8aa
=11
8bb
8bb
8gg#
8ff#}
=12
{8ee
8cc#
8ee
8ee
=13
4ff#
8bb
8gg#
=14
8ff#
4ff#
8cc#
=15
2ee}
=16
{8ff#
8ee
8ff#
8aa
=17
8ee
4ee
8ff#}
=18
{8ccc#
16ccc#
16ccc#
8ff#
8aa
=19
8bb
4.bb}
=20
{8r
8ff#
8ccc#
8ccc#
=21
8ff#
8ccc#
8ff#
8aa
=22
8eee
16ccc#
16bb
16aa
16bb
16ccc#
16eee
=23
8bb
8bb
8gg#
8ff#}
=24
{8ee
8cc#
8ee
8ee
=25
8ff#
8ff#
8bb
8gg#
=26
8ff#
4ff#
8cc#
=27
2ee}
==
!!!AGN: Xiaodiao, Panwugeng diao
!!!AMT: simple duple
!!!AIN: vox
!!!EED: Helmut Schaffrath
!!!EEV: 1.0
*-
